X:3525
T:Crazy Creek
M:4/4
L:1/8
S:ABC User's List, Gary Smith, 4/97
H:Arr. by Steve Kaufman; Flatpicking Guitar Magazine
K:A
z2z2z2CB,||:A,CEA FE^DF|EFAc BAGB|ABcd cBA2|
e3=ge2=cd|e=ged =cdcA|=G=cAG ED=CD|EDE=F ED=C|
E3=FE2D^D|EFGB d=cB|1 A2AAA2CB,:|2 A6=F=G||
K:C
AcAG FEFG|AcAG FAGF|EFGA GED^D|EGAB c_BAG|
AcAG FEFG|AcAG FDEF|G^FGA GECD|E^DEFG4||


